Dominus_Dark_Funeral/22/apps/preferences-desktop-emoticons.svg

<svg xmlns="http://www.w3.org/2000/svg" width="24" height="24"><defs><linearGradient id="a"><stop offset="0" stop-color="#070000"/><stop offset="1" stop-opacity="0"/></linearGradient></defs><path d="M12 1C5.9 1 1 5.9 1 12s4.9 11 11 11 11-4.9 11-11S18.1 1 12 1zM8.56 6.5a2.06 2.06 0 0 1 2.06 2.06 2.06 2.06 0 0 1-2.06 2.06A2.06 2.06 0 0 1 6.5 8.56 2.06 2.06 0 0 1 8.56 6.5zm6.88 0a2.06 2.06 0 0 1 2.06 2.06 2.06 2.06 0 0 1-2.06 2.06 2.06 2.06 0 0 1-2.06-2.06 2.06 2.06 0 0 1 2.06-2.06zm-7.56 8.25h.58c.9 1.16 2.19 1.37 3.54 1.38 1.35 0 2.64-.22 3.54-1.38h.59A4.7 4.7 0 0 1 12 17.5a4.7 4.7 0 0 1-4.12-2.75z" fill="#e6e6e6" stroke-width="1.38"/></svg>

<?xml version="1.0" encoding="UTF-8" standalone="no"?>
<svg
   xmlns:dc="http://purl.org/dc/elements/1.1/"
   xmlns:cc="http://creativecommons.org/ns#"
   xmlns:rdf="http://www.w3.org/1999/02/22-rdf-syntax-ns#"
   xmlns:svg="http://www.w3.org/2000/svg"
   xmlns="http://www.w3.org/2000/svg"
   xmlns:sodipodi="http://sodipodi.sourceforge.net/DTD/sodipodi-0.dtd"
   xmlns:inkscape="http://www.inkscape.org/namespaces/inkscape"
   width="24"
   height="24"
   version="1.1"
   id="svg11"
   sodipodi:docname="preferences-desktop-emoticons.svg"
   inkscape:version="0.92.4 (5da689c313, 2019-01-14)">
  <metadata
     id="metadata15">
    <rdf:RDF>
      <cc:Work
         rdf:about="">
        <dc:format>image/svg+xml</dc:format>
        <dc:type
           rdf:resource="http://purl.org/dc/dcmitype/StillImage" />
        <dc:title></dc:title>
      </cc:Work>
    </rdf:RDF>
  </metadata>
  <sodipodi:namedview
     pagecolor="#ffffff"
     bordercolor="#666666"
     borderopacity="1"
     objecttolerance="10"
     gridtolerance="10"
     guidetolerance="10"
     inkscape:pageopacity="0"
     inkscape:pageshadow="2"
     inkscape:window-width="1138"
     inkscape:window-height="480"
     id="namedview13"
     showgrid="false"
     inkscape:zoom="9.8333333"
     inkscape:cx="1.0677966"
     inkscape:cy="12"
     inkscape:window-x="0"
     inkscape:window-y="25"
     inkscape:window-maximized="0"
     inkscape:current-layer="svg11" />
  <defs
     id="defs7">
    <linearGradient
       id="a">
      <stop
         offset="0"
         stop-color="#070000"
         id="stop2" />
      <stop
         offset="1"
         stop-opacity="0"
         id="stop4" />
    </linearGradient>
  </defs>
  <path
     d="M 12,1 C 5.9,1 1,5.9 1,12 1,18.1 5.9,23 12,23 18.1,23 23,18.1 23,12 23,5.9 18.1,1 12,1 Z M 8.56,6.5 A 2.06,2.06 0 0 1 10.62,8.56 2.06,2.06 0 0 1 8.56,10.62 2.06,2.06 0 0 1 6.5,8.56 2.06,2.06 0 0 1 8.56,6.5 Z m 6.88,0 A 2.06,2.06 0 0 1 17.5,8.56 2.06,2.06 0 0 1 15.44,10.62 2.06,2.06 0 0 1 13.38,8.56 2.06,2.06 0 0 1 15.44,6.5 Z m -7.56,8.25 h 0.58 c 0.9,1.16 2.19,1.37 3.54,1.38 1.35,0 2.64,-0.22 3.54,-1.38 h 0.59 A 4.7,4.7 0 0 1 12,17.5 4.7,4.7 0 0 1 7.88,14.75 Z"
     id="path9"
     inkscape:connector-curvature="0"
     style="fill:#e6e6e6;stroke-width:1.38" />
</svg>
